packages/kaspersky-hexa-ui-icons/src/iconsSVGs/16x12/FlagNa.svg

<svg width="16" height="12" viewBox="0 0 16 12" fill="none" xmlns="http://www.w3.org/2000/svg">
<g clip-path="url(#clip0_41818_3328)">
<rect width="16" height="12" rx="2" fill="white"/>
<mask id="mask0_41818_3328" style="mask-type:luminance" maskUnits="userSpaceOnUse" x="0" y="0" width="16" height="12">
<rect width="16" height="12" rx="2" fill="white"/>
</mask>
<g mask="url(#mask0_41818_3328)">
<path fill-rule="evenodd" clip-rule="evenodd" d="M0 8L16 0H0V8Z" fill="#0C4799"/>
<path fill-rule="evenodd" clip-rule="evenodd" d="M2.66663 3.6L2.0835 4.2782L2.12788 3.36568L1.25882 3.41229L1.90473 2.8L1.25882 2.1877L2.12788 2.23431L2.0835 1.32179L2.66663 2L3.24977 1.32179L3.20538 2.23431L4.07445 2.1877L3.42854 2.8L4.07445 3.41229L3.20538 3.36568L3.24977 4.2782L2.66663 3.6Z" fill="#FFD243"/>
<path fill-rule="evenodd" clip-rule="evenodd" d="M0 12H16V4L0 12Z" fill="#1BAC55"/>
<path fill-rule="evenodd" clip-rule="evenodd" d="M1.76142 13.6L17.2405 3.44401L14.2387 -1.60002L-1.24036 8.55598L1.76142 13.6Z" fill="white"/>
<path fill-rule="evenodd" clip-rule="evenodd" d="M-0.359556 13.8432L18.3783 1.54903L16.3595 -1.84316L-2.3783 10.451L-0.359556 13.8432Z" fill="#E52347"/>
</g>
</g>
<defs>
<clipPath id="clip0_41818_3328">
<rect width="16" height="12" fill="white"/>
</clipPath>
</defs>
</svg>

<svg xmlns="http://www.w3.org/2000/svg" width="16" height="12" fill="none" viewBox="0 0 16 12"><g clip-path="url(#a)"><rect width="16" height="12" fill="#fff" rx="2"/><mask id="b" width="16" height="12" x="0" y="0" maskUnits="userSpaceOnUse" style="mask-type:luminance"><rect width="16" height="12" fill="#fff" rx="2"/></mask><g fill-rule="evenodd" clip-rule="evenodd" mask="url(#b)"><path fill="#0c4799" d="m0 8 16-8H0z"/><path fill="#ffd243" d="m2.6666 3.6-.5831.6782.0444-.9125-.869.0466.6458-.6123-.6459-.6123.869.0466-.0443-.9125L2.6666 2l.5832-.6782-.0444.9125.869-.0466-.6459.6123.646.6123-.8691-.0466.0444.9125z"/><path fill="#1bac55" d="M0 12h16V4z"/><path fill="#fff" d="M1.7614 13.6 17.2405 3.444 14.2387-1.6-1.2403 8.556z"/><path fill="#e52347" d="M-.3596 13.8432 18.3783 1.549l-2.0188-3.3922L-2.3783 10.451z"/></g></g><defs><clipPath id="a"><path fill="#fff" d="M0 0h16v12H0z"/></clipPath></defs></svg>
